packages/icons/svg/Fill/folder-remove.svg

<svg fill="none" height="24" viewBox="0 0 24 24" width="24" xmlns="http://www.w3.org/2000/svg"><path clip-rule="evenodd" d="m14 15.0001h-4c-.55 0-1-.45-1-1s.45-1 1-1h4c.55 0 1 .45 1 1s-.45 1-1 1zm5.5-7.9541h-7.026l-2.59898-3.179c-.19-.232-.47501-.367-.774-.367h-4.601c-1.378 0-2.5 1.091-2.5 2.432v12.136c0 1.341 1.122 2.432 2.5 2.432h14.99998c1.378 0 2.5-1.091 2.5-2.432v-8.59c0-1.341-1.122-2.432-2.5-2.432z" fill="#6b7280" fill-rule="evenodd"/></svg>

<svg width="24" height="24" viewBox="0 0 24 24" fill="none" xmlns="http://www.w3.org/2000/svg">
<g id="Icon/Fill/folder-remove">
<path id="Mask" fill-rule="evenodd" clip-rule="evenodd" d="M14 15H10C9.45 15 9 14.55 9 14C9 13.45 9.45 13 10 13H14C14.55 13 15 13.45 15 14C15 14.55 14.55 15 14 15ZM19.5 7.046H12.474L9.875 3.867C9.685 3.635 9.4 3.5 9.101 3.5H4.5C3.122 3.5 2 4.591 2 5.932V18.068C2 19.409 3.122 20.5 4.5 20.5H19.5C20.878 20.5 22 19.409 22 18.068V9.478C22 8.137 20.878 7.046 19.5 7.046Z" fill="#000000"/>
</g>
</svg>
